src/wp-content/themes/aquaban/assets/images/online.svg

<svg width="40" height="24" viewBox="0 0 40 24" fill="none" xmlns="http://www.w3.org/2000/svg">
<path d="M34.0712 0.0233035C34.5676 -0.0687011 35.1052 0.115995 35.4334 0.501865C37.3058 2.75323 38.6014 5.4811 39.1548 8.35728C39.7761 11.528 39.4988 14.8683 38.3611 17.8921C37.6765 19.7198 36.6823 21.4302 35.4375 22.9325C35.1443 23.2751 34.6864 23.4646 34.2373 23.4337C33.6702 23.4062 33.1443 23.0128 32.9548 22.4772C32.7653 21.9822 32.8834 21.4 33.2287 21.0024C34.7269 19.1754 35.776 16.9824 36.2456 14.6658C36.7311 12.3128 36.624 9.84102 35.9374 7.53885C35.386 5.6809 34.4584 3.93625 33.2294 2.4374C32.9445 2.10371 32.8058 1.64712 32.8875 1.2125C32.9829 0.61996 33.4793 0.122861 34.0712 0.0233035Z" fill="#126C8A"/>
<path d="M29.6826 6.08379C30.1976 5.89497 30.81 6.03298 31.1972 6.42022C31.4176 6.61522 31.5035 6.90222 31.6326 7.15626C32.5794 8.9016 32.9955 10.9278 32.8279 12.9052C32.7064 14.3827 32.2608 15.8315 31.5323 17.1223C31.371 17.41 31.1121 17.6427 30.8045 17.7656C30.2339 18.0018 29.5158 17.8377 29.1189 17.3598C28.742 16.9252 28.6603 16.2606 28.9315 15.7518C29.0983 15.4353 29.2734 15.1229 29.4059 14.7899C30.3026 12.669 30.1035 10.1327 28.8937 8.1738C28.4371 7.42678 28.8518 6.34813 29.6826 6.08379Z" fill="#126C8A"/>
<path d="M4.90531 0.0215116C5.50334 -0.0869715 6.146 0.223373 6.43094 0.760295C6.7351 1.29104 6.64516 1.99481 6.24212 2.44934C4.56063 4.48854 3.44903 6.99189 3.0659 9.60647C2.46238 13.562 3.60969 17.7358 6.12403 20.8441C6.32657 21.0878 6.52569 21.3542 6.58268 21.6742C6.7097 22.2406 6.45634 22.8661 5.97229 23.1861C5.51776 23.5005 4.88402 23.5218 4.40958 23.239C4.15073 23.0968 3.97222 22.8558 3.79507 22.6279C2.19254 20.6113 1.04455 18.2357 0.460935 15.7268C-0.273729 12.5966 -0.12817 9.26523 0.883195 6.21329C1.56362 4.13975 2.64158 2.19873 4.03332 0.517925C4.25235 0.254956 4.5675 0.0771263 4.90531 0.0215116Z" fill="#126C8A"/>
<path d="M8.87374 6.04436C9.37496 5.91391 9.94072 6.07663 10.2895 6.46044C10.6616 6.85387 10.7825 7.4622 10.5868 7.96754C10.431 8.328 10.2133 8.65894 10.0732 9.02765C9.21017 11.0682 9.3523 13.4995 10.4515 15.424C10.6713 15.7783 10.7708 16.215 10.661 16.6242C10.5367 17.1323 10.1199 17.5566 9.6084 17.6747C9.04539 17.8361 8.4041 17.5951 8.07041 17.1172C6.14587 13.9829 6.13076 9.79252 8.02235 6.63896C8.21872 6.34372 8.52975 6.1295 8.87374 6.04436Z" fill="#126C8A"/>
<path d="M18.8842 8.08443C19.9639 7.85649 21.1337 8.09475 22.0285 8.74293C23.0153 9.43895 23.6523 10.6021 23.7001 11.8094C23.7583 12.8994 23.3408 14.0025 22.5782 14.7829C21.7537 15.6459 20.5267 16.099 19.3392 15.9817C18.1948 15.8851 17.1142 15.2585 16.451 14.3233C15.7409 13.3468 15.5233 12.0401 15.8638 10.8835C16.2549 9.48867 17.465 8.36959 18.8842 8.08443Z" fill="#00AFEA"/>
</svg>

<svg width="40" height="24" fill="none" xmlns="http://www.w3.org/2000/svg"><path d="M34.071.023a1.467 1.467 0 011.362.479 17.53 17.53 0 013.722 7.855 17.619 17.619 0 01-.794 9.535 17.591 17.591 0 01-2.923 5.04 1.467 1.467 0 11-2.209-1.93 14.626 14.626 0 003.017-6.336A14.643 14.643 0 0033.23 2.438a1.49 1.49 0 01-.342-1.225A1.472 1.472 0 0134.07.022z" fill="#126C8A"/><path d="M29.683 6.084a1.47 1.47 0 011.514.336c.22.195.306.482.436.736a10.335 10.335 0 01-.1 9.966c-.162.288-.42.52-.729.644-.57.236-1.288.072-1.685-.406a1.461 1.461 0 01-.188-1.608c.167-.317.342-.63.475-.962.897-2.121.698-4.657-.512-6.616-.457-.747-.042-1.826.789-2.09zM4.905.022A1.47 1.47 0 016.431.76c.304.531.214 1.235-.189 1.69a14.658 14.658 0 00-3.176 7.156c-.604 3.956.544 8.13 3.058 11.238.203.244.402.51.459.83a1.468 1.468 0 01-.61 1.512 1.476 1.476 0 01-1.563.053c-.26-.142-.438-.383-.615-.611a17.515 17.515 0 01-3.334-6.901c-.735-3.13-.59-6.462.422-9.514A17.53 17.53 0 014.033.518a1.45 1.45 0 01.872-.496z" fill="#126C8A"/><path d="M8.874 6.044a1.454 1.454 0 011.415.416c.373.394.494 1.002.298 1.508-.156.36-.374.69-.514 1.06a7.334 7.334 0 00.378 6.396c.22.354.32.791.21 1.2a1.444 1.444 0 01-1.053 1.05c-.563.162-1.204-.079-1.538-.557-1.924-3.134-1.94-7.324-.048-10.478.197-.295.508-.51.852-.595z" fill="#126C8A"/><path d="M18.884 8.084a4.01 4.01 0 013.145.659 4.003 4.003 0 01.55 6.04 4 4 0 11-3.695-6.699z" fill="#00AFEA"/></svg>
